X:1
T: Waggle o' the Kilt
C:
R:Jig
Q:180
K:D
M:6/8
L:1/16
D6 D6|d4d2 d4c2|B4A2 F4G2|A6 F4E2|D4E2 F4G2|A4B2 c4d2|e4^d2 e4f2|e6-e6|
d4e2 f4e2|d4d2 d4B2|A4B2 A4F2|E6 F4G2|A6 A6|A4A2 A4A2|d4c2 B4c2|d2B2A2 G2F2E2|
D6 D6|d4d2 d4c2|B4A2 F4G2|A6 F4E2|D4E2 F4G2|A4B2 c4d2|e4^d2 e4f2|e6-e6|
d4e2 f4e2|d4d2 d4B2|A4B2 A4F2|E6 F4G2|A6 A6|A4A2 A4A2|d4c2 B4c2|d6-d6||
